assets/icon-gluten-free.svg

<svg
  class="icon icon-accordion icon-gluten_free"
  aria-hidden="true"
  focusable="false"
  xmlns="http://www.w3.org/2000/svg"
  width="20"
  height="20"
  viewBox="0 0 20 20"
>
  <path d="M7.06824 12.3516L2.5155 15.5063L1.94594 14.6844L6.49868 11.5296L7.06824 12.3516Z" />
  <path d="M17.5225 5.32178L12.9698 8.47656L12.4002 7.65461L16.953 4.49983L17.5225 5.32178Z" />
  <path d="M9.5 16.5102V7.48755C9.5 7.21141 9.72386 6.98755 10 6.98755C10.2761 6.98755 10.5 7.21141 10.5 7.48755V16.5102C10.5 16.7863 10.2761 17.0102 10 17.0102C9.72386 17.0102 9.5 16.7863 9.5 16.5102Z" />
  <path d="M11.6499 6.16907C12.0653 4.3892 11.1344 2.97716 10.4169 2.35932C10.2112 2.18215 9.90167 2.20154 9.71965 2.403C8.5055 3.74686 8.23998 5.05583 8.46722 6.15655L9.44657 5.95437C9.31065 5.296 9.40373 4.45385 10.1172 3.49217C10.5448 4.04146 10.9158 4.91458 10.6761 5.94184L11.6499 6.16907Z" />
  <path d="M9.23931 5.58007C8.53263 4.97546 7.68892 4.71888 7.10039 4.65047C6.83071 4.61912 6.58528 4.80872 6.54752 5.07758C6.36481 6.37849 6.53802 7.47619 7.01787 8.2605L7.87088 7.73861C7.60135 7.29806 7.43535 6.634 7.48488 5.74907C7.84288 5.85624 8.24246 6.04325 8.58922 6.33992C9.09387 6.77167 9.51495 7.45768 9.51495 8.56389L10.515 8.56389C10.515 7.16257 9.96384 6.19994 9.23931 5.58007Z" />
  <path d="M10.7766 5.7705C11.4833 5.16589 12.327 4.90931 12.9155 4.8409C13.1852 4.80955 13.4307 4.99915 13.4684 5.26801C13.6511 6.56892 13.4779 7.66662 12.9981 8.45093L12.145 7.92903C12.4146 7.48849 12.5806 6.82443 12.531 5.9395C12.1731 6.04667 11.7735 6.23368 11.4267 6.53035C10.9221 6.9621 10.501 7.64811 10.501 8.75432L9.50098 8.75432C9.50098 7.353 10.0521 6.39037 10.7766 5.7705Z" />
  <path d="M11.1313 8.03618C11.9048 7.51988 12.7731 7.36543 13.3655 7.36747C13.637 7.3684 13.8582 7.58583 13.8637 7.85728C13.8905 9.17069 13.588 10.24 13.0183 10.9617L12.2334 10.3421C12.5534 9.93673 12.7972 9.29711 12.8532 8.41257C12.485 8.47642 12.066 8.61459 11.6864 8.86793C11.134 9.23663 10.6344 9.86771 10.5029 10.9661L9.50995 10.8472C9.67655 9.45581 10.3382 8.56552 11.1313 8.03618Z" />
  <path d="M8.78433 8.01627C7.99185 7.52953 7.11841 7.40795 6.52642 7.43234C6.25515 7.44352 6.04237 7.66914 6.04708 7.9406C6.06991 9.25408 6.41252 10.3112 7.00904 11.0109L7.77002 10.3621C7.43496 9.96912 7.16722 9.33916 7.07786 8.45736C7.44821 8.50727 7.8721 8.62954 8.26096 8.86838C8.82688 9.21597 9.34999 9.82774 9.52286 10.9204L10.5106 10.7641C10.2916 9.37999 9.59682 8.51531 8.78433 8.01627Z" />
  <path d="M10.4487 12.1822C9.29338 10.2297 7.27248 10.0798 6.23288 10.3152C5.96807 10.3752 5.79951 10.6355 5.85315 10.9016C6.11442 12.1981 6.67517 13.079 7.37604 13.6435C8.07111 14.2032 8.86395 14.4197 9.54256 14.4622L9.60513 13.4642C9.08338 13.4315 8.50257 13.2667 8.00326 12.8646C7.59385 12.5349 7.21139 12.0234 6.96619 11.2297C7.77612 11.2096 8.8907 11.5129 9.58803 12.6914L10.4487 12.1822Z" />
  <path d="M9.50482 12.1822C10.6601 10.2297 12.681 10.0798 13.7206 10.3152C13.9854 10.3752 14.154 10.6355 14.1003 10.9016C13.8401 12.1932 13.2951 13.0779 12.6087 13.6485C11.9265 14.2156 11.1444 14.4393 10.4615 14.4821L10.3989 13.4841C10.9164 13.4516 11.4827 13.2842 11.9695 12.8795C12.3704 12.5463 12.7452 12.0292 12.9884 11.2297C12.1784 11.2093 11.0631 11.5123 10.3655 12.6914L9.50482 12.1822Z" />
  <path d="M10 18.4998C14.6944 18.4998 18.5 14.6942 18.5 9.99976C18.5 5.30534 14.6944 1.49976 10 1.49976C5.30558 1.49976 1.5 5.30534 1.5 9.99976C1.5 14.6942 5.30558 18.4998 10 18.4998ZM10 19.4998C15.2467 19.4998 19.5 15.2465 19.5 9.99976C19.5 4.75305 15.2467 0.499756 10 0.499756C4.75329 0.499756 0.5 4.75305 0.5 9.99976C0.5 15.2465 4.75329 19.4998 10 19.4998Z" fill-rule="evenodd" />
</svg>

<svg xmlns="http://www.w3.org/2000/svg" class="icon icon-accordion icon-gluten_free" viewBox="0 0 20 20"><path d="m7.068 12.352-4.552 3.154-.57-.822 4.553-3.154zm10.455-7.03L12.97 8.477l-.57-.822L16.953 4.5zM9.5 16.51V7.488a.5.5 0 0 1 1 0v9.022a.5.5 0 0 1-1 0m2.15-10.34c.415-1.78-.516-3.193-1.233-3.81a.5.5 0 0 0-.697.043C8.505 3.747 8.24 5.056 8.467 6.157l.98-.203c-.136-.658-.043-1.5.67-2.462.428.55.799 1.423.56 2.45z"/><path d="M9.24 5.58a4.1 4.1 0 0 0-2.14-.93.5.5 0 0 0-.552.428c-.183 1.3-.01 2.398.47 3.183l.853-.522c-.27-.44-.436-1.105-.386-1.99.358.107.757.294 1.104.59.505.433.926 1.119.926 2.225h1c0-1.401-.551-2.364-1.276-2.984"/><path d="M10.777 5.77a4.1 4.1 0 0 1 2.139-.93.5.5 0 0 1 .552.428c.183 1.3.01 2.399-.47 3.183l-.853-.522c.27-.44.436-1.105.386-1.99a3.1 3.1 0 0 0-1.104.591c-.505.432-.926 1.118-.926 2.224h-1c0-1.401.551-2.364 1.276-2.983"/><path d="M11.131 8.036a4.1 4.1 0 0 1 2.235-.669.5.5 0 0 1 .498.49c.026 1.314-.276 2.383-.846 3.105l-.785-.62c.32-.405.564-1.045.62-1.93a3.1 3.1 0 0 0-1.167.456c-.552.369-1.052 1-1.183 2.098l-.993-.119c.167-1.391.828-2.281 1.621-2.81"/><path d="M8.784 8.016a4.1 4.1 0 0 0-2.258-.584.5.5 0 0 0-.479.509c.023 1.313.366 2.37.962 3.07l.761-.649c-.335-.393-.603-1.023-.692-1.905.37.05.794.173 1.183.411.566.348 1.089.96 1.262 2.052l.988-.156c-.22-1.384-.914-2.249-1.727-2.748"/><path d="M10.449 12.182c-1.156-1.952-3.177-2.102-4.216-1.867a.5.5 0 0 0-.38.587c.261 1.296.822 2.177 1.523 2.742.695.56 1.488.776 2.167.818l.062-.998a2.8 2.8 0 0 1-1.602-.6c-.41-.33-.792-.84-1.037-1.634.81-.02 1.925.283 2.622 1.461z"/><path d="M9.505 12.182c1.155-1.952 3.176-2.102 4.216-1.867a.5.5 0 0 1 .38.587c-.26 1.291-.806 2.176-1.492 2.747a3.7 3.7 0 0 1-2.148.833l-.062-.998a2.7 2.7 0 0 0 1.57-.604c.401-.334.776-.85 1.02-1.65-.81-.02-1.926.282-2.623 1.461z"/><path fill-rule="evenodd" d="M10 18.5a8.5 8.5 0 1 0 0-17 8.5 8.5 0 0 0 0 17m0 1a9.5 9.5 0 1 0 0-19 9.5 9.5 0 0 0 0 19"/></svg>
